(tool change to 4 mm Carbide Slot Cutter)
N70T2M06
N80G17G90G21G54
N90G00Z5S7000M03
N100G00X9Y28.1
N110G00Z2
N120G01Z-2F150
N130G01X33Y28.1F800
N140G01X33Y30.1
N150G01X9Y30.1
N160G01X9Y32.1
N170G01X33Y32.1
N180G01X33Y34.1
N190G01X9Y34.1
N200G01X9Y36.1
N210G01X33Y36.1
N220G01X33Y38.1
N230G01X9Y38.1
N240G01X9Y40
N250G01X33Y40
N260G00Z5
N270G00Z5
N280G00X9Y28.1
N290G00Z0
N300G01Z-3F150
N310G01X33Y28.1F800
N320G01X33Y30.1
N330G01X9Y30.1
N340G01X9Y32.1
N350G01X33Y32.1
N360G01X33Y34.1
N370G01X9Y34.1
N380G01X9Y36.1
N390G01X33Y36.1
N400G01X33Y38.1
N410G01X9Y38.1
N420G01X9Y40
N430G01X33Y40
N440G00Z5
N450G00Z5
(4.2mm_ring_small)
N460G00X15Y28S7000M03
N470G00Z-1
N480G01Z-4.2F150
N490G02X15Y40I0J6F800
N500G01X27Y40
N510G02X27Y28I0J-6
N520G01X15Y28
N530G00Z5
N540G90
(4.2mm_deep_ring_big)
N550G00X15Y25S7000M03
N560G00Z-1
N570G01Z-4.2F150
N580G02X15Y43I0J9F800
N590G01X27Y43
N600G02X27Y25I0J-9
N610G01X15Y25
N620G00Z5
N630G90
N640G00Z5S7000M03
N650G00X21Y1.1
N660G00Z-1
N670G01Z-4.2F150
N680G01X25Y1.1F800
N690G01X25Y3.1
N700G01X21Y3.1
N710G01X21Y5.1
N720G01X25Y5.1
N730G01X25Y7.1
N740G01X21Y7.1
N750G01X21Y7.5
N760G03X20.662Y8.611I-2.029J-0.01
N770G01X20.413Y8.913
N780G01X20.185Y9.1
N790G01X25Y9.1
N800G01X25Y11.1
N810G01X9Y11.1
N820G01X9Y13.1
N830G01X25Y13.1
N840G01X25Y15.1
N850G01X9Y15.1
N860G01X9Y17.1
N870G01X25Y17.1
N880G01X25Y19.1
N890G01X9Y19.1
N900G01X9Y21.1
N910G01X25Y21.1
N920G01X25Y23.1
N930G01X9Y23.1
N940G01X9Y25.1
N950G01X25Y25.1
N960G01X25Y27.1
N970G01X9Y27.1
N980G01X9Y28
N990G01X25Y28
N1000G00Z5
N1010G00Z5
(outline)
N1020G00X2Y-1S7000M03
N1030G00Z2
N1040G01Z-1.75F150
N1050G02X-2Y3I0J4F800
N1060G01X-2Y5.5
N1070G02X2Y9.5I4J0
N1080G01X7Y9.5
N1090G01X7Y40
N1100G02X9Y42I2J0
N1110G01X33Y42
N1120G02X35Y40I0J-2
N1130G01X35Y28
N1140G02X33Y26I-2J0
N1150G01X27Y26
N1160G01X27Y1
N1170G02X25Y-1I-2J0
N1180G01X2Y-1
N1190G00Z5
N1200G00X2Y-1
N1210G00Z2
N1220G01Z-3.5F150
N1230G02X-2Y3I0J4F800
N1240G01X-2Y5.5
N1250G02X2Y9.5I4J0
N1260G01X7Y9.5
N1270G01X7Y40
N1280G02X9Y42I2J0
N1290G01X33Y42
N1300G02X35Y40I0J-2
N1310G01X35Y28
N1320G02X33Y26I-2J0
N1330G01X27Y26
N1340G01X27Y1
N1350G02X25Y-1I-2J0
N1360G01X2Y-1
N1370G00Z5
N1380G00X2Y-1
N1390G00Z2
N1400G01Z-5.25F150
N1410G02X-2Y3I0J4F800
N1420G01X-2Y5.5
N1430G02X2Y9.5I4J0
N1440G01X7Y9.5
N1450G01X7Y40
N1460G02X9Y42I2J0
N1470G01X33Y42
N1480G02X35Y40I0J-2
N1490G01X35Y28
N1500G02X33Y26I-2J0
N1510G01X27Y26
N1520G01X27Y1
N1530G02X25Y-1I-2J0
N1540G01X2Y-1
N1550G00Z5
N1560G00X2Y-1
N1570G00Z2
N1580G01Z-7F150
N1590G02X-2Y3I0J4F800
N1600G01X-2Y5.5
N1610G02X2Y9.5I4J0
N1620G01X7Y9.5
N1630G01X7Y40
N1640G02X9Y42I2J0
N1650G01X33Y42
N1660G02X35Y40I0J-2
N1670G01X35Y28
N1680G02X33Y26I-2J0
N1690G01X27Y26
N1700G01X27Y1
N1710G02X25Y-1I-2J0
N1720G01X2Y-1
N1730G00Z5
N1740G00X2Y-1
N1750G00Z2
N1760G01Z-8.75F150
N1770G02X-2Y3I0J4F800
N1780G01X-2Y5.5
N1790G02X2Y9.5I4J0
N1800G01X7Y9.5
N1810G01X7Y40
N1820G02X9Y42I2J0
N1830G01X33Y42
N1840G02X35Y40I0J-2
N1850G01X35Y28
N1860G02X33Y26I-2J0
N1870G01X27Y26
N1880G01X27Y1
N1890G02X25Y-1I-2J0
N1900G01X2Y-1
N1910G00Z5
N1920G00X2Y-1
N1930G00Z2
N1940G01Z-10.5F150
N1950G02X-2Y3I0J4F800
N1960G01X-2Y5.5
N1970G02X2Y9.5I4J0
N1980G01X7Y9.5
N1990G01X7Y40
N2000G02X9Y42I2J0
N2010G01X33Y42
N2020G02X35Y40I0J-2
N2030G01X35Y28
N2040G02X33Y26I-2J0
N2050G01X27Y26
N2060G01X27Y1
N2070G02X25Y-1I-2J0
N2080G01X2Y-1
N2090G00Z5
N2100M02
