(tool change to 4 mm Carbide Slot Cutter)
N70T2M06
N80G17G90G21G54
N90G00Z5S7000M03
N100G00X9Y28.1
N110G00Z2
N120G01Z-2F150
N130G01X33Y28.1F800
N140G01X33Y30.1
N150G01X9Y30.1
N160G01X9Y32.1
N170G01X33Y32.1
N180G01X33Y34.1
N190G01X9Y34.1
N200G01X9Y36.1
N210G01X33Y36.1
N220G01X33Y38.1
N230G01X9Y38.1
N240G01X9Y40
N250G01X33Y40
N260G00Z5
N270G00Z5
N280G00X9Y28.1
N290G00Z0
N300G01Z-3F150
N310G01X33Y28.1F800
N320G01X33Y30.1
N330G01X9Y30.1
N340G01X9Y32.1
N350G01X33Y32.1
N360G01X33Y34.1
N370G01X9Y34.1
N380G01X9Y36.1
N390G01X33Y36.1
N400G01X33Y38.1
N410G01X9Y38.1
N420G01X9Y40
N430G01X33Y40
N440G00Z5
N450G00Z5
(4.2mm_ring_small)
N460G00X27Y28S7000M03
N470G00Z-1
N480G01Z-4.2F150
N490G01X15Y28F800
N500G02X15Y40I0J6
N510G01X27Y40
N520G02X27Y28I0J-6
N530G00Z5
N540G90
(4.2mm_deep_ring_big)
N550G00X27Y25S7000M03
N560G00Z-1
N570G01Z-4.2F150
N580G01X15Y25F800
N590G02X15Y43I0J9
N600G01X27Y43
N610G02X27Y25I0J-9
N620G00Z5
N630G90
N640G00Z5S7000M03
N650G00X17Y1.1
N660G00Z-1
N670G01Z-4.2F150
N680G01X21Y1.1F800
N690G01X21Y3.1
N700G01X17Y3.1
N710G01X17Y5.1
N720G01X21Y5.1
N730G01X21Y7.1
N740G01X17Y7.1
N750G01X17Y9.1
N760G01X21.812Y9.1
N770G01X21.888Y9.162
N780G01X22.234Y9.347
N790G02X23Y9.5I0.768J-1.855
N800G01X33Y9.5
N810G01X33Y11.1
N820G01X17Y11.1
N830G01X17Y13.1
N840G01X33Y13.1
N850G01X33Y15.1
N860G01X17Y15.1
N870G01X17Y17.1
N880G01X33Y17.1
N890G01X33Y19.1
N900G01X17Y19.1
N910G01X17Y21.1
N920G01X33Y21.1
N930G01X33Y23.1
N940G01X17Y23.1
N950G01X17Y25.1
N960G01X33Y25.1
N970G01X33Y27.1
N980G01X17Y27.1
N990G01X17Y28
N1000G01X33Y28
N1010G00Z5
N1020G00Z5
(outline)
N1030G00X40Y-1S7000M03
N1040G00Z2
N1050G01Z-1.75F150
N1060G01X17Y-1F800
N1070G02X15Y1I0J2
N1080G01X15Y26
N1090G01X9Y26
N1100G02X7Y28I0J2
N1110G01X7Y40
N1120G02X9Y42I2J0
N1130G01X33Y42
N1140G02X35Y40I0J-2
N1150G01X35Y9.5
N1160G01X40Y9.5
N1170G02X44Y5.5I0J-4
N1180G01X44Y3
N1190G02X40Y-1I-4J0
N1200G00Z5
N1210G00X40Y-1
N1220G00Z2
N1230G01Z-3.5F150
N1240G01X17Y-1F800
N1250G02X15Y1I0J2
N1260G01X15Y26
N1270G01X9Y26
N1280G02X7Y28I0J2
N1290G01X7Y40
N1300G02X9Y42I2J0
N1310G01X33Y42
N1320G02X35Y40I0J-2
N1330G01X35Y9.5
N1340G01X40Y9.5
N1350G02X44Y5.5I0J-4
N1360G01X44Y3
N1370G02X40Y-1I-4J0
N1380G00Z5
N1390G00X40Y-1
N1400G00Z2
N1410G01Z-5.25F150
N1420G01X17Y-1F800
N1430G02X15Y1I0J2
N1440G01X15Y26
N1450G01X9Y26
N1460G02X7Y28I0J2
N1470G01X7Y40
N1480G02X9Y42I2J0
N1490G01X33Y42
N1500G02X35Y40I0J-2
N1510G01X35Y9.5
N1520G01X40Y9.5
N1530G02X44Y5.5I0J-4
N1540G01X44Y3
N1550G02X40Y-1I-4J0
N1560G00Z5
N1570G00X40Y-1
N1580G00Z2
N1590G01Z-7F150
N1600G01X17Y-1F800
N1610G02X15Y1I0J2
N1620G01X15Y26
N1630G01X9Y26
N1640G02X7Y28I0J2
N1650G01X7Y40
N1660G02X9Y42I2J0
N1670G01X33Y42
N1680G02X35Y40I0J-2
N1690G01X35Y9.5
N1700G01X40Y9.5
N1710G02X44Y5.5I0J-4
N1720G01X44Y3
N1730G02X40Y-1I-4J0
N1740G00Z5
N1750G00X40Y-1
N1760G00Z2
N1770G01Z-8.75F150
N1780G01X17Y-1F800
N1790G02X15Y1I0J2
N1800G01X15Y26
N1810G01X9Y26
N1820G02X7Y28I0J2
N1830G01X7Y40
N1840G02X9Y42I2J0
N1850G01X33Y42
N1860G02X35Y40I0J-2
N1870G01X35Y9.5
N1880G01X40Y9.5
N1890G02X44Y5.5I0J-4
N1900G01X44Y3
N1910G02X40Y-1I-4J0
N1920G00Z5
N1930G00X40Y-1
N1940G00Z2
N1950G01Z-10.5F150
N1960G01X17Y-1F800
N1970G02X15Y1I0J2
N1980G01X15Y26
N1990G01X9Y26
N2000G02X7Y28I0J2
N2010G01X7Y40
N2020G02X9Y42I2J0
N2030G01X33Y42
N2040G02X35Y40I0J-2
N2050G01X35Y9.5
N2060G01X40Y9.5
N2070G02X44Y5.5I0J-4
N2080G01X44Y3
N2090G02X40Y-1I-4J0
N2100G00Z5
N2110M02
